remix/Others/key-fill.svg

<svg viewBox="0 0 24 24" fill="currentColor" xmlns="http://www.w3.org/2000/svg"><path d="M17 14H12.6586C11.8349 16.3304 9.61244 18 7 18C3.68629 18 1 15.3137 1 12C1 8.68629 3.68629 6 7 6C9.61244 6 11.8349 7.66962 12.6586 10H23V14H21V18H17V14ZM7 14C8.10457 14 9 13.1046 9 12C9 10.8954 8.10457 10 7 10C5.89543 10 5 10.8954 5 12C5 13.1046 5.89543 14 7 14Z"/></svg>

<svg viewBox="0 0 24 24" xmlns="http://www.w3.org/2000/svg"><path fill="none" d="M0 0h24v24H0Z"/><path d="M17 14h-4.35v0c-1.11 3.12-4.54 4.76-7.66 3.65 -3.13-1.11-4.77-4.54-3.66-7.66 1.1-3.13 4.53-4.77 7.65-3.66 1.7.6 3.05 1.94 3.65 3.65h10.34v4h-2v4h-4v-4ZM7 14v0c1.1 0 2-.9 2-2 0-1.11-.9-2-2-2v0c-1.11 0-2 .89-2 2 0 1.1.89 2 2 2Z"/></svg>
